images/header/offer-3.svg

<svg width="61" height="62" viewBox="0 0 61 62" fill="none" xmlns="http://www.w3.org/2000/svg">
<g clip-path="url(#clip0)">
<path d="M54.1122 21.1674H37.3865C33.5898 21.1674 30.4995 18.0771 30.4995 14.2804C30.4995 10.4837 33.5898 7.39335 37.3865 7.39335C37.7634 7.39335 38.1382 7.42393 38.5082 7.48488C39.8797 3.91256 43.339 1.49023 47.2252 1.49023C51.1537 1.49023 54.6868 4.00016 56.0122 7.66112C58.9343 8.49749 60.9994 11.1921 60.9994 14.2806C60.9992 18.0771 57.9089 21.1674 54.1122 21.1674Z" fill="url(#paint0_linear)"/>
<path d="M59.6056 33.6361C56.1651 31.9152 52.3122 31.0062 48.4652 31.0062H36.0596L24.9094 23.1353H15.3354L23.2063 31.0062H15.1327L6.27792 23.1353H0.454346L4.3525 31.9074L2.95249 32.1407V35.4475L3.58122 35.8971C8.11284 39.1341 13.4523 40.845 19.0211 40.845H21.2387L14.0397 48.0438L15.0453 48.7079C15.3591 48.9155 15.6552 49.1546 15.9249 49.4182L16.212 49.6996H21.9588L34.503 40.8448H48.2181C51.6115 40.8448 54.9134 40.1669 58.0312 38.8308L59.4715 38.2138C60.4002 37.8144 61.0004 36.9043 61.0004 35.8938C61.0006 34.9318 60.4663 34.0669 59.6056 33.6361ZM20.0854 25.103H24.2856L32.6485 31.0062H25.9887L20.0854 25.103ZM3.48266 25.103H5.53019L12.1713 31.0062H10.8166C10.1141 31.0062 9.40665 31.0652 8.71408 31.1803L6.35767 31.5729L3.48266 25.103ZM58.6965 36.4047L57.2562 37.0217C54.3832 38.2535 51.3442 38.8773 48.2183 38.8773H37.2906L38.9396 37.7134L37.8043 36.1058L21.3344 47.732H17.1339L27.2608 37.6051L25.8697 36.214L23.2065 38.8773H19.0209C13.9451 38.8773 9.07504 37.3415 4.92006 34.4341V33.8074L9.03764 33.1206C9.624 33.0233 10.2232 32.9739 10.8166 32.9739H48.4652C52.0091 32.9739 55.557 33.8111 58.725 35.3952C58.9149 35.4907 59.0328 35.6816 59.0328 35.894C59.0328 36.1163 58.9 36.3171 58.6965 36.4047Z" fill="url(#paint1_linear)"/>
<path d="M20.0854 25.103H24.2856L32.6485 31.0062H25.9887L20.0854 25.103Z" fill="url(#paint2_linear)"/>
<path d="M58.6965 36.4047L57.2562 37.0217C54.3832 38.2535 51.3442 38.8773 48.2183 38.8773H37.2906L38.9396 37.7134L37.8043 36.1058L21.3344 47.732H17.1339L27.2608 37.6051L25.8697 36.214L23.2065 38.8773H19.0209C13.9451 38.8773 9.07504 37.3415 4.92006 34.4341V33.8074L9.03764 33.1206C9.624 33.0233 10.2232 32.9739 10.8166 32.9739H48.4652C52.0091 32.9739 55.557 33.8111 58.725 35.3952C58.9149 35.4907 59.0328 35.6816 59.0328 35.894C59.0328 36.1163 58.9 36.3171 58.6965 36.4047Z" fill="url(#paint3_linear)"/>
<path d="M3.48266 25.103H5.53019L12.1713 31.0062H10.8166C10.1141 31.0062 9.40665 31.0652 8.71408 31.1803L6.35767 31.5729L3.48266 25.103Z" fill="url(#paint4_linear)"/>
<path d="M17.7096 61.5057H5.90312C2.64753 61.5057 0 58.8582 0 55.6026C0 52.7121 2.12811 50.2641 4.9401 49.8007C6.32337 47.3313 8.95912 45.7639 11.8064 45.7639C15.5472 45.7639 18.7507 48.4096 19.5042 52.0154C21.3736 52.7445 22.629 54.5389 22.629 56.5865C22.629 59.2989 20.4222 61.5057 17.7096 61.5057Z" fill="url(#paint5_linear)"/>
</g>
<defs>
<linearGradient id="paint0_linear" x1="60.3552" y1="19.6632" x2="47.7853" y2="-19.9479" gradientUnits="userSpaceOnUse">
<stop stop-color="#F09642"/>
<stop offset="1" stop-color="#F4E26E"/>
</linearGradient>
<linearGradient id="paint1_linear" x1="-1.10964" y1="24.8444" x2="54.6752" y2="83.7027" gradientUnits="userSpaceOnUse">
<stop stop-color="#272671"/>
<stop offset="1" stop-color="#7BB3CB"/>
</linearGradient>
<linearGradient id="paint2_linear" x1="-1.10964" y1="24.8444" x2="54.6752" y2="83.7027" gradientUnits="userSpaceOnUse">
<stop stop-color="#272671"/>
<stop offset="1" stop-color="#7BB3CB"/>
</linearGradient>
<linearGradient id="paint3_linear" x1="-1.10964" y1="24.8444" x2="54.6752" y2="83.7027" gradientUnits="userSpaceOnUse">
<stop stop-color="#272671"/>
<stop offset="1" stop-color="#7BB3CB"/>
</linearGradient>
<linearGradient id="paint4_linear" x1="-1.10964" y1="24.8444" x2="54.6752" y2="83.7027" gradientUnits="userSpaceOnUse">
<stop stop-color="#272671"/>
<stop offset="1" stop-color="#7BB3CB"/>
</linearGradient>
<linearGradient id="paint5_linear" x1="22.1511" y1="60.3024" x2="11.467" y2="29.078" gradientUnits="userSpaceOnUse">
<stop stop-color="#F09642"/>
<stop offset="1" stop-color="#F4E26E"/>
</linearGradient>
<clipPath id="clip0">
<rect width="61" height="61" fill="white" transform="translate(0 0.998047)"/>
</clipPath>
</defs>
</svg>

<svg width="61" height="62" fill="none" xmlns="http://www.w3.org/2000/svg"><g clip-path="url(#a)"><path d="M54.112 21.167H37.386A6.896 6.896 0 0 1 30.5 14.28a6.896 6.896 0 0 1 8.01-6.795 9.36 9.36 0 0 1 8.716-5.995c3.929 0 7.462 2.51 8.787 6.171A6.898 6.898 0 0 1 61 14.281a6.896 6.896 0 0 1-6.887 6.886Z" fill="url(#b)"/><path d="M59.606 33.636a25.031 25.031 0 0 0-11.14-2.63H36.06l-11.15-7.87h-9.575l7.871 7.87h-8.073l-8.855-7.87H.454l3.898 8.771-1.4.234v3.306l.63.45a26.416 26.416 0 0 0 15.44 4.948h2.217l-7.2 7.199 1.006.664c.314.208.61.447.88.71l.287.282h5.747l12.544-8.855h13.715c3.393 0 6.695-.678 9.813-2.014l1.44-.617a2.523 2.523 0 0 0 1.53-2.32 2.51 2.51 0 0 0-1.395-2.258Zm-39.52-8.533h4.2l8.362 5.903h-6.66l-5.903-5.903Zm-16.603 0H5.53l6.641 5.903h-1.354c-.703 0-1.41.06-2.103.174l-2.356.393-2.875-6.47Zm55.214 11.302-1.44.617a22.801 22.801 0 0 1-9.039 1.855H37.291l1.649-1.164-1.136-1.607-16.47 11.626h-4.2L27.26 37.605l-1.391-1.391-2.664 2.663h-4.185a24.462 24.462 0 0 1-14.1-4.443v-.627l4.117-.686a10.906 10.906 0 0 1 1.779-.147h37.648c3.544 0 7.092.837 10.26 2.421a.555.555 0 0 1-.029 1.01Z" fill="url(#c)"/><path d="M20.085 25.103h4.2l8.363 5.903h-6.66l-5.903-5.903Z" fill="url(#d)"/><path d="m58.697 36.405-1.44.617a22.801 22.801 0 0 1-9.039 1.855H37.291l1.649-1.164-1.136-1.607-16.47 11.626h-4.2L27.26 37.605l-1.391-1.391-2.664 2.663h-4.185a24.462 24.462 0 0 1-14.1-4.443v-.627l4.117-.686a10.906 10.906 0 0 1 1.779-.147h37.648c3.544 0 7.092.837 10.26 2.421a.555.555 0 0 1-.029 1.01Z" fill="url(#e)"/><path d="M3.483 25.103H5.53l6.641 5.903h-1.354c-.703 0-1.41.06-2.103.174l-2.356.393-2.875-6.47Z" fill="url(#f)"/><path d="M17.71 61.506H5.903A5.909 5.909 0 0 1 0 55.603c0-2.89 2.128-5.339 4.94-5.802a7.905 7.905 0 0 1 6.866-4.037 7.879 7.879 0 0 1 7.698 6.251 4.897 4.897 0 0 1 3.125 4.572 4.925 4.925 0 0 1-4.92 4.919Z" fill="url(#g)"/></g><defs><linearGradient id="b" x1="60.355" y1="19.663" x2="47.785" y2="-19.948" gradientUnits="userSpaceOnUse"><stop stop-color="#F09642"/><stop offset="1" stop-color="#F4E26E"/></linearGradient><linearGradient id="c" x1="-1.11" y1="24.844" x2="54.675" y2="83.703" gradientUnits="userSpaceOnUse"><stop stop-color="#272671"/><stop offset="1" stop-color="#7BB3CB"/></linearGradient><linearGradient id="d" x1="-1.11" y1="24.844" x2="54.675" y2="83.703" gradientUnits="userSpaceOnUse"><stop stop-color="#272671"/><stop offset="1" stop-color="#7BB3CB"/></linearGradient><linearGradient id="e" x1="-1.11" y1="24.844" x2="54.675" y2="83.703" gradientUnits="userSpaceOnUse"><stop stop-color="#272671"/><stop offset="1" stop-color="#7BB3CB"/></linearGradient><linearGradient id="f" x1="-1.11" y1="24.844" x2="54.675" y2="83.703" gradientUnits="userSpaceOnUse"><stop stop-color="#272671"/><stop offset="1" stop-color="#7BB3CB"/></linearGradient><linearGradient id="g" x1="22.151" y1="60.302" x2="11.467" y2="29.078" gradientUnits="userSpaceOnUse"><stop stop-color="#F09642"/><stop offset="1" stop-color="#F4E26E"/></linearGradient><clipPath id="a"><path fill="#fff" transform="translate(0 .998)" d="M0 0h61v61H0z"/></clipPath></defs></svg>
